src/assets/Icons/01.svg

<svg width="32" height="25" viewBox="0 0 32 25" fill="none" xmlns="http://www.w3.org/2000/svg">
<path d="M1.592 5.984L0.683061 5.56696L0.679076 5.57587L1.592 5.984ZM5.048 1.728L5.61907 2.54891L5.62146 2.54723L5.048 1.728ZM15.48 1.728L14.901 2.54333L14.9077 2.54808L14.9145 2.55273L15.48 1.728ZM18.936 5.984L18.023 6.39215L18.0271 6.40102L18.936 5.984ZM19 18.688L18.0831 18.2889L19 18.688ZM15.608 22.912L16.171 23.7385L15.608 22.912ZM4.952 22.912L4.38902 23.7385L4.39457 23.7422L4.952 22.912ZM1.56 18.688L2.4769 18.2889L1.56 18.688ZM5.112 16.96L4.17311 17.3043L4.17502 17.3094L5.112 16.96ZM7.128 19.84L6.52489 20.6377L6.53115 20.6424L6.53749 20.647L7.128 19.84ZM13.432 19.84L14.032 20.64L14.0351 20.6377L13.432 19.84ZM15.448 16.96L16.385 17.3094L16.3869 17.3043L15.448 16.96ZM15.448 7.68L14.5091 8.02426L14.511 8.02938L15.448 7.68ZM13.432 4.768L12.8194 5.55847L12.8289 5.56566L13.432 4.768ZM7.128 4.768L7.73111 5.56566L7.73111 5.56566L7.128 4.768ZM5.112 7.68L6.04899 8.02939L6.05088 8.02425L5.112 7.68ZM1.376 12.352C1.376 10.0298 1.76303 8.05163 2.50492 6.39213L0.679076 5.57587C-0.200364 7.54304 -0.624 9.81016 -0.624 12.352H1.376ZM2.5009 6.40102C3.267 4.73132 4.3098 3.4597 5.61907 2.5489L4.47694 0.907094C2.8422 2.0443 1.581 3.61001 0.683104 5.56698L2.5009 6.40102ZM5.62146 2.54723C6.93175 1.63003 8.46612 1.16 10.264 1.16V-0.840002C8.09388 -0.840002 6.15091 -0.264696 4.47454 0.908767L5.62146 2.54723ZM10.264 1.16C12.0859 1.16 13.6168 1.63133 14.901 2.54333L16.059 0.912671C14.3992 -0.265998 12.4528 -0.840002 10.264 -0.840002V1.16ZM14.9145 2.55273C16.2413 3.46255 17.2801 4.73016 18.0231 6.39213L19.8489 5.57587C18.9706 3.61117 17.7054 2.04145 16.0455 0.90327L14.9145 2.55273ZM18.0271 6.40102C18.7874 8.05811 19.184 10.0331 19.184 12.352H21.184C21.184 9.80692 20.7486 7.53656 19.8449 5.56698L18.0271 6.40102ZM19.184 12.352C19.184 14.6547 18.807 16.6259 18.0831 18.2889L19.9169 19.0871C20.7717 17.1235 21.184 14.8706 21.184 12.352H19.184ZM18.0831 18.2889C17.3605 19.9489 16.3442 21.2006 15.045 22.0855L16.171 23.7385C17.8158 22.6181 19.0609 21.0537 19.9169 19.0871L18.0831 18.2889ZM15.045 22.0855C13.7663 22.9566 12.1896 23.416 10.264 23.416V25.416C12.5197 25.416 14.5057 24.8728 16.171 23.7385L15.045 22.0855ZM10.264 23.416C8.38615 23.416 6.81584 22.9589 5.50943 22.0818L4.39457 23.7422C6.07483 24.8704 8.04585 25.416 10.264 25.416V23.416ZM5.51497 22.0855C4.21577 21.2006 3.19952 19.9489 2.4769 18.2889L0.643102 19.0871C1.49915 21.0537 2.74423 22.6181 4.38904 23.7385L5.51497 22.0855ZM2.4769 18.2889C1.75299 16.6259 1.376 14.6547 1.376 12.352H-0.624C-0.624 14.8706 -0.211659 17.1235 0.643102 19.0871L2.4769 18.2889ZM3.408 12.352C3.408 14.2266 3.65288 15.8854 4.17312 17.3043L6.05088 16.6157C5.63245 15.4746 5.408 14.0614 5.408 12.352H3.408ZM4.17502 17.3094C4.69577 18.7059 5.46764 19.8383 6.52489 20.6377L7.73111 19.0423C7.03903 18.5191 6.46689 17.7314 6.04898 16.6106L4.17502 17.3094ZM6.53749 20.647C7.60416 21.4275 8.86277 21.8 10.264 21.8V19.8C9.23323 19.8 8.40117 19.5325 7.71851 19.033L6.53749 20.647ZM10.264 21.8C11.6988 21.8 12.9759 21.4321 14.032 20.64L12.832 19.04C12.1814 19.5279 11.3466 19.8 10.264 19.8V21.8ZM14.0351 20.6377C15.0924 19.8383 15.8642 18.7059 16.385 17.3094L14.511 16.6106C14.0931 17.7314 13.521 18.5191 12.8289 19.0423L14.0351 20.6377ZM16.3869 17.3043C16.9071 15.8854 17.152 14.2266 17.152 12.352H15.152C15.152 14.0614 14.9275 15.4746 14.5091 16.6157L16.3869 17.3043ZM17.152 12.352C17.152 10.419 16.9086 8.73479 16.385 7.33062L14.511 8.02938C14.9261 9.14254 15.152 10.573 15.152 12.352H17.152ZM16.3869 7.33574C15.8675 5.91936 15.0963 4.77272 14.0351 3.97034L12.8289 5.56566C13.517 6.08595 14.0898 6.88064 14.5091 8.02425L16.3869 7.33574ZM14.0446 3.97758C12.9879 3.15865 11.7061 2.776 10.264 2.776V4.776C11.3392 4.776 12.1695 5.05468 12.8194 5.55841L14.0446 3.97758ZM10.264 2.776C8.8553 2.776 7.59215 3.16339 6.52489 3.97034L7.73111 5.56566C8.41319 5.04994 9.2407 4.776 10.264 4.776V2.776ZM6.52489 3.97034C5.46369 4.77272 4.69246 5.91936 4.17312 7.33574L6.05088 8.02425C6.4702 6.88064 7.04298 6.08595 7.73111 5.56566L6.52489 3.97034ZM4.17502 7.33062C3.65143 8.73479 3.408 10.419 3.408 12.352H5.408C5.408 10.573 5.6339 9.14254 6.04898 8.02938L4.17502 7.33062ZM27.7705 4.288H28.7705V3.288H27.7705V4.288ZM22.6505 4.288H21.6505V5.288H22.6505V4.288ZM22.6505 0.608V-0.392H21.6505V0.608H22.6505ZM31.6745 0.608H32.6745V-0.392H31.6745V0.608ZM31.6745 24V25H32.6745V24H31.6745ZM27.7705 24H26.7705V25H27.7705V24ZM27.7705 3.288H22.6505V5.288H27.7705V3.288ZM23.6505 4.288V0.608H21.6505V4.288H23.6505ZM22.6505 1.608H31.6745V-0.392H22.6505V1.608ZM30.6745 0.608V24H32.6745V0.608H30.6745ZM31.6745 23H27.7705V25H31.6745V23ZM28.7705 24V4.288H26.7705V24H28.7705Z" fill="#FD943C"/>
</svg>

<svg width="32" height="25" fill="none" xmlns="http://www.w3.org/2000/svg"><path d="m1.592 5.984-.909-.417-.004.009.913.408Zm3.456-4.256.571.82h.002l-.573-.82Zm10.432 0-.579.815.007.005.007.005.565-.825Zm3.456 4.256-.913.408.004.009.909-.417ZM19 18.688l-.917-.4.917.4Zm-3.392 4.224.563.826-.563-.826Zm-10.656 0-.563.826.006.004.557-.83ZM1.56 18.688l.917-.4-.917.4Zm3.552-1.728-.939.344.002.005.937-.349Zm2.016 2.88-.603.798.006.004.006.005.591-.807Zm6.304 0 .6.8.003-.002-.603-.798Zm2.016-2.88.937.35.002-.006-.939-.344Zm0-9.28-.939.344.002.005.937-.349Zm-2.016-2.912-.613.79.01.008.603-.798Zm-6.304 0 .603.798-.603-.798ZM5.112 7.68l.937.35.002-.006-.939-.344Zm-3.736 4.672c0-2.322.387-4.3 1.129-5.96L.679 5.576C-.2 7.543-.624 9.81-.624 12.352h2Zm1.125-5.951c.766-1.67 1.809-2.941 3.118-3.852L4.477.907C2.842 2.044 1.58 3.61.683 5.567l1.818.834Zm3.12-3.854c1.31-.917 2.845-1.387 4.643-1.387v-2c-2.17 0-4.113.575-5.79 1.749l1.147 1.638Zm4.643-1.387c1.822 0 3.353.471 4.637 1.383l1.158-1.63C14.399-.266 12.453-.84 10.264-.84v2Zm4.65 1.393c1.327.91 2.366 2.177 3.11 3.84l1.825-.817C18.97 3.61 17.705 2.04 16.046.903l-1.131 1.65ZM18.027 6.4c.76 1.657 1.157 3.632 1.157 5.951h2c0-2.545-.435-4.815-1.34-6.785l-1.817.834Zm1.157 5.951c0 2.303-.377 4.274-1.1 5.937l1.833.798c.855-1.963 1.267-4.216 1.267-6.735h-2Zm-1.1 5.937c-.724 1.66-1.74 2.912-3.039 3.796l1.126 1.653c1.645-1.12 2.89-2.684 3.746-4.65l-1.834-.8Zm-3.039 3.796c-1.279.872-2.855 1.331-4.781 1.331v2c2.256 0 4.242-.543 5.907-1.678l-1.126-1.652Zm-4.781 1.331c-1.878 0-3.448-.457-4.755-1.334l-1.114 1.66c1.68 1.128 3.65 1.674 5.869 1.674v-2Zm-4.749-1.33c-1.3-.885-2.315-2.137-3.038-3.797l-1.834.798c.856 1.967 2.101 3.531 3.746 4.651l1.126-1.652Zm-3.038-3.797c-.724-1.663-1.101-3.634-1.101-5.937h-2c0 2.519.412 4.771 1.267 6.735l1.834-.798Zm.931-5.937c0 1.875.245 3.533.765 4.952l1.878-.688c-.419-1.141-.643-2.555-.643-4.264h-2Zm.767 4.957c.52 1.397 1.293 2.53 2.35 3.329l1.206-1.596c-.692-.523-1.264-1.31-1.682-2.431l-1.874.698Zm2.362 3.338c1.067.78 2.326 1.153 3.727 1.153v-2c-1.03 0-1.863-.268-2.545-.767l-1.182 1.614Zm3.727 1.153c1.435 0 2.712-.368 3.768-1.16l-1.2-1.6c-.65.488-1.485.76-2.568.76v2Zm3.771-1.162c1.057-.8 1.83-1.932 2.35-3.329l-1.874-.698c-.418 1.12-.99 1.908-1.682 2.431l1.206 1.596Zm2.352-3.334c.52-1.419.765-3.077.765-4.952h-2c0 1.71-.224 3.123-.643 4.264l1.878.688Zm.765-4.952c0-1.933-.243-3.617-.767-5.021l-1.874.698c.415 1.114.641 2.544.641 4.323h2Zm-.765-5.016c-.52-1.417-1.29-2.563-2.352-3.366L12.83 5.566c.688.52 1.26 1.315 1.68 2.458l1.878-.688Zm-2.342-3.358c-1.057-.82-2.339-1.202-3.781-1.202v2c1.075 0 1.905.279 2.555.782l1.226-1.58Zm-3.781-1.202c-1.409 0-2.672.387-3.74 1.194l1.207 1.596c.682-.516 1.51-.79 2.533-.79v-2ZM6.524 3.97c-1.06.803-1.832 1.95-2.35 3.366l1.877.688c.42-1.143.992-1.938 1.68-2.458L6.525 3.97ZM4.176 7.33c-.524 1.405-.767 3.089-.767 5.022h2c0-1.779.226-3.21.641-4.323l-1.874-.698ZM27.77 4.289h1v-1h-1v1Zm-5.12 0h-1v1h1v-1Zm0-3.68v-1h-1v1h1Zm9.024 0h1v-1h-1v1Zm0 23.392v1h1v-1h-1Zm-3.904 0h-1v1h1v-1Zm0-20.712h-5.12v2h5.12v-2Zm-4.12 1V.608h-2v3.68h2Zm-1-2.68h9.024v-2h-9.023v2Zm8.024-1V24h2V.608h-2Zm1 22.392H27.77v2h3.904v-2Zm-2.904 1V4.288h-2V24h2Z" fill="#FD943C"/></svg>
